Sweet-Rainbow/icons/mysql-workbench.svg

<?xml version="1.0" encoding="UTF-8" standalone="no"?>
<!-- Generator: Gravit.io -->

<svg
   xmlns:dc="http://purl.org/dc/elements/1.1/"
   xmlns:cc="http://creativecommons.org/ns#"
   xmlns:rdf="http://www.w3.org/1999/02/22-rdf-syntax-ns#"
   xmlns:svg="http://www.w3.org/2000/svg"
   xmlns="http://www.w3.org/2000/svg"
   xmlns:sodipodi="http://sodipodi.sourceforge.net/DTD/sodipodi-0.dtd"
   xmlns:inkscape="http://www.inkscape.org/namespaces/inkscape"
   style="isolation:isolate"
   viewBox="0 0 36 36"
   width="48"
   height="48"
   version="1.1"
   id="svg9"
   sodipodi:docname="mysql-workbench.svg"
   inkscape:version="0.92.4 (5da689c313, 2019-01-14)">
  <metadata
     id="metadata15">
    <rdf:RDF>
      <cc:Work
         rdf:about="">
        <dc:format>image/svg+xml</dc:format>
        <dc:type
           rdf:resource="http://purl.org/dc/dcmitype/StillImage" />
        <dc:title></dc:title>
      </cc:Work>
    </rdf:RDF>
  </metadata>
  <defs
     id="defs13" />
  <sodipodi:namedview
     pagecolor="#ffffff"
     bordercolor="#666666"
     borderopacity="1"
     objecttolerance="10"
     gridtolerance="10"
     guidetolerance="10"
     inkscape:pageopacity="0"
     inkscape:pageshadow="2"
     inkscape:window-width="640"
     inkscape:window-height="480"
     id="namedview11"
     showgrid="false"
     inkscape:zoom="29.365243"
     inkscape:cx="25.325443"
     inkscape:cy="32"
     inkscape:current-layer="svg9"
     units="px" />
  <linearGradient
     id="_lgradient_23"
     x1="0"
     y1="0.5"
     x2="0.90748805"
     y2="0.92007786"
     gradientTransform="matrix(44,0,0,44,2,2)"
     gradientUnits="userSpaceOnUse">
    <stop
       offset="0%"
       stop-opacity="1"
       style="stop-color:rgb(0,196,255)"
       id="stop2" />
    <stop
       offset="83.88839793817618%"
       stop-opacity="1"
       style="stop-color:rgb(0,114,255)"
       id="stop4" />
  </linearGradient>
  <g
     id="g826"
     transform="matrix(0.81818182,0,0,0.81818182,-1.6364728,-1.6363637)">
    <path
       id="path7"
       d="m 6.001,22.66 v 0 c -0.083,1.098 -1.046,1.925 -2.148,1.845 v 0 C 2.751,24.425 1.923,23.464 2.006,22.36 v 0 C 2.416,16.83 4.909,11.65 8.984,7.87 13.059,4.1 18.416,2 23.973,2 29.81,2 35.417,4.32 39.552,8.44 43.677,12.57 46,18.17 46,24 46,29.83 43.677,35.43 39.552,39.56 35.417,43.68 29.81,46 23.973,46 v 0 C 22.868,46 21.97,45.104 21.97,44 v 0 c 0,-1.104 0.898,-2 2.003,-2 v 0 c 4.776,0 9.361,-1.9 12.746,-5.27 3.374,-3.38 5.276,-7.96 5.276,-12.73 0,-4.77 -1.902,-9.35 -5.276,-12.73 C 33.334,7.9 28.749,6 23.973,6 19.427,6 15.042,7.71 11.708,10.8 8.374,13.89 6.341,18.13 6.001,22.66 Z m 9.591,17.28 v 0 c 0.979,0.513 1.355,1.723 0.842,2.7 v 0 c -0.514,0.977 -1.726,1.353 -2.704,0.84 v 0 C 9.565,41.29 6.201,37.82 4.148,33.59 v 0 C 3.662,32.597 4.075,31.398 5.07,30.915 v 0 c 0.994,-0.483 2.197,-0.068 2.683,0.925 v 0 c 1.682,3.47 4.425,6.3 7.839,8.1 z m 19.473,-5.022 c -0.149,-0.097 -0.963,-0.561 -1.809,-1.033 -1.761,-0.981 -3.518,-2.482 -3.518,-3.007 0,-0.466 0.576,-0.838 1.457,-0.942 0.422,-0.049 0.976,-0.131 1.231,-0.18 l 0.463,-0.091 -0.686,-0.501 c -0.65,-0.474 -1.152,-0.71 -2.626,-1.23 -0.954,-0.336 -1.646,-1.121 -2.426,-2.749 -2.032,-4.241 -2.408,-4.938 -3.099,-5.739 -0.777,-0.9 -1.899,-1.839 -3.406,-2.849 -1.479,-0.992 -1.71,-1.081 -2.777,-1.081 -0.85,0 -1.029,-0.047 -1.558,-0.41 -0.836,-0.572 -1.666,-0.926 -2.181,-0.929 -0.663,-0.005 -0.585,0.469 0.248,1.498 0.808,0.998 0.999,1.341 1.401,2.517 0.166,0.484 0.614,1.421 0.995,2.082 0.381,0.661 0.693,1.261 0.693,1.332 0,0.071 -0.16,0.587 -0.355,1.146 -0.429,1.229 -0.548,2.544 -0.318,3.518 0.4,1.691 0.89,1.922 1.169,0.549 0.243,-1.191 0.661,-1.911 1.11,-1.908 0.137,10e-4 0.577,0.677 1.226,1.884 0.556,1.036 1.36,2.344 1.786,2.908 0.426,0.563 0.747,1.051 0.713,1.084 -0.08,0.08 -1.182,-0.849 -1.985,-1.673 -0.348,-0.357 -0.847,-1.004 -1.109,-1.439 -0.452,-0.75 -0.482,-0.774 -0.597,-0.47 -0.067,0.177 -0.164,0.515 -0.216,0.751 -0.149,0.682 -0.565,1.114 -1.073,1.114 -0.711,0 -1.221,-0.714 -1.636,-2.288 -0.277,-1.051 -0.207,-3.289 0.138,-4.405 0.223,-0.719 0.223,-0.72 -0.108,-1.073 -0.427,-0.454 -0.67,-0.941 -1.195,-2.394 -0.332,-0.922 -0.64,-1.453 -1.404,-2.428 -0.687,-0.876 -1.005,-1.405 -1.068,-1.775 -0.195,-1.149 0.249,-1.817 1.197,-1.796 0.732,0.016 2.231,0.517 2.877,0.962 0.381,0.263 0.762,0.377 1.5,0.451 1.813,0.181 3.79,1.336 5.863,3.426 2.008,2.025 3.52,4.412 4.082,6.444 0.377,1.362 0.972,2.005 2.606,2.814 1.2,0.594 1.569,0.864 2.658,1.944 0.695,0.689 1.265,1.355 1.265,1.48 0,0.274 -0.565,0.47 -1.686,0.583 -1.572,0.159 -1.56,0.128 -0.383,0.963 2.006,1.423 2.727,2.117 2.94,2.828 0.102,0.34 -0.005,0.37 -0.399,0.112 z M 17.802,17.879 c -0.11,-0.261 -0.321,-0.54 -0.47,-0.619 -0.315,-0.168 -0.348,-0.439 -0.079,-0.661 0.288,-0.239 1.125,0.148 1.231,0.569 0.252,1 -0.313,1.59 -0.682,0.711 z"
       style="fill:url(#_lgradient_23);fill-rule:evenodd"
       inkscape:connector-curvature="0" />
  </g>
</svg>

<?xml version="1.0" encoding="UTF-8" standalone="no"?><!-- Generator: Gravit.io --><svg xmlns="http://www.w3.org/2000/svg" xmlns:xlink="http://www.w3.org/1999/xlink" style="isolation:isolate" viewBox="0 0 48 48" width="48pt" height="48pt"><linearGradient id="_lgradient_23" x1="0" y1="0.5" x2="0.9074880558539661" y2="0.9200778838291643" gradientTransform="matrix(44,0,0,44,2,2)" gradientUnits="userSpaceOnUse"><stop offset="0%" stop-opacity="1" style="stop-color:rgb(0,196,255)"/><stop offset="83.88839793817618%" stop-opacity="1" style="stop-color:rgb(0,114,255)"/></linearGradient><path d=" M 6.001 22.66 L 6.001 22.66 C 5.918 23.758 4.955 24.585 3.853 24.505 L 3.853 24.505 C 2.751 24.425 1.923 23.464 2.006 22.36 L 2.006 22.36 C 2.416 16.83 4.909 11.65 8.984 7.87 C 13.059 4.1 18.416 2 23.973 2 C 29.81 2 35.417 4.32 39.552 8.44 C 43.677 12.57 46 18.17 46 24 C 46 29.83 43.677 35.43 39.552 39.56 C 35.417 43.68 29.81 46 23.973 46 L 23.973 46 C 22.868 46 21.97 45.104 21.97 44 L 21.97 44 C 21.97 42.896 22.868 42 23.973 42 L 23.973 42 C 28.749 42 33.334 40.1 36.719 36.73 C 40.093 33.35 41.995 28.77 41.995 24 C 41.995 19.23 40.093 14.65 36.719 11.27 C 33.334 7.9 28.749 6 23.973 6 C 19.427 6 15.042 7.71 11.708 10.8 C 8.374 13.89 6.341 18.13 6.001 22.66 L 6.001 22.66 Z  M 15.592 39.94 L 15.592 39.94 C 16.571 40.453 16.947 41.663 16.434 42.64 L 16.434 42.64 C 15.92 43.617 14.708 43.993 13.73 43.48 L 13.73 43.48 C 9.565 41.29 6.201 37.82 4.148 33.59 L 4.148 33.59 C 3.662 32.597 4.075 31.398 5.07 30.915 L 5.07 30.915 C 6.064 30.432 7.267 30.847 7.753 31.84 L 7.753 31.84 C 9.435 35.31 12.178 38.14 15.592 39.94 L 15.592 39.94 Z  M 35.065 34.918 C 34.916 34.821 34.102 34.357 33.256 33.885 C 31.495 32.904 29.738 31.403 29.738 30.878 C 29.738 30.412 30.314 30.04 31.195 29.936 C 31.617 29.887 32.171 29.805 32.426 29.756 L 32.889 29.665 L 32.203 29.164 C 31.553 28.69 31.051 28.454 29.577 27.934 C 28.623 27.598 27.931 26.813 27.151 25.185 C 25.119 20.944 24.743 20.247 24.052 19.446 C 23.275 18.546 22.153 17.607 20.646 16.597 C 19.167 15.605 18.936 15.516 17.869 15.516 C 17.019 15.516 16.84 15.469 16.311 15.106 C 15.475 14.534 14.645 14.18 14.13 14.177 C 13.467 14.172 13.545 14.646 14.378 15.675 C 15.186 16.673 15.377 17.016 15.779 18.192 C 15.945 18.676 16.393 19.613 16.774 20.274 C 17.155 20.935 17.467 21.535 17.467 21.606 C 17.467 21.677 17.307 22.193 17.112 22.752 C 16.683 23.981 16.564 25.296 16.794 26.27 C 17.194 27.961 17.684 28.192 17.963 26.819 C 18.206 25.628 18.624 24.908 19.073 24.911 C 19.21 24.912 19.65 25.588 20.299 26.795 C 20.855 27.831 21.659 29.139 22.085 29.703 C 22.511 30.266 22.832 30.754 22.798 30.787 C 22.718 30.867 21.616 29.938 20.813 29.114 C 20.465 28.757 19.966 28.11 19.704 27.675 C 19.252 26.925 19.222 26.901 19.107 27.205 C 19.04 27.382 18.943 27.72 18.891 27.956 C 18.742 28.638 18.326 29.07 17.818 29.07 C 17.107 29.07 16.597 28.356 16.182 26.782 C 15.905 25.731 15.975 23.493 16.32 22.377 C 16.543 21.658 16.543 21.657 16.212 21.304 C 15.785 20.85 15.542 20.363 15.017 18.91 C 14.685 17.988 14.377 17.457 13.613 16.482 C 12.926 15.606 12.608 15.077 12.545 14.707 C 12.35 13.558 12.794 12.89 13.742 12.911 C 14.474 12.927 15.973 13.428 16.619 13.873 C 17 14.136 17.381 14.25 18.119 14.324 C 19.932 14.505 21.909 15.66 23.982 17.75 C 25.99 19.775 27.502 22.162 28.064 24.194 C 28.441 25.556 29.036 26.199 30.67 27.008 C 31.87 27.602 32.239 27.872 33.328 28.952 C 34.023 29.641 34.593 30.307 34.593 30.432 C 34.593 30.706 34.028 30.902 32.907 31.015 C 31.335 31.174 31.347 31.143 32.524 31.978 C 34.53 33.401 35.251 34.095 35.464 34.806 C 35.566 35.146 35.459 35.176 35.065 34.918 L 35.065 34.918 L 35.065 34.918 Z  M 17.802 17.879 C 17.692 17.618 17.481 17.339 17.332 17.26 C 17.017 17.092 16.984 16.821 17.253 16.599 C 17.541 16.36 18.378 16.747 18.484 17.168 C 18.736 18.168 18.171 18.758 17.802 17.879 L 17.802 17.879 L 17.802 17.879 Z " fill-rule="evenodd" fill="url(#_lgradient_23)"/></svg>
